images/tg.svg

<svg width="25" height="21" viewBox="0 0 25 21" fill="none" xmlns="http://www.w3.org/2000/svg">
<path fill-rule="evenodd" clip-rule="evenodd" d="M23.3162 0.683992C21.6521 1.26751 1.14286 8.77787 0.840787 8.91439C-0.16299 9.36787 -0.280339 9.96687 0.555286 10.372C0.635963 10.4111 2.02416 10.8343 3.64016 11.3124L6.57839 12.1816L13.2502 8.20335C16.9197 6.01529 19.9959 4.2005 20.0862 4.17053C20.3128 4.09521 20.5078 4.10225 20.5988 4.18903C20.6625 4.24976 20.6651 4.28024 20.6145 4.36949C20.581 4.42855 18.1442 6.53789 15.1995 9.05691C12.2548 11.5759 9.83752 13.6567 9.82779 13.6808C9.81811 13.7049 9.71851 14.9625 9.60644 16.4755L9.40274 19.2265L9.62409 19.198C9.74584 19.1823 9.93864 19.1225 10.0525 19.0649C10.1664 19.0074 10.9331 18.3454 11.7562 17.5939C12.5793 16.8424 13.2813 16.2171 13.3162 16.2043C13.351 16.1916 14.6619 17.0767 16.2291 18.1712C17.7964 19.2656 19.2016 20.2153 19.3516 20.2813C19.7453 20.4548 20.1889 20.472 20.4769 20.3251C20.7342 20.1938 20.9857 19.8678 21.0914 19.5284C21.1323 19.397 22.0284 15.4508 23.0826 10.759C24.8378 2.94733 24.9994 2.19103 25 1.7856C25.0006 1.40253 24.9839 1.31142 24.8762 1.10979C24.8002 0.967643 24.6708 0.822508 24.5442 0.737683C24.2549 0.543704 23.7759 0.522778 23.3162 0.683992Z" fill="#F5F5F6"/>
</svg>

<svg width="25" height="21" fill="none" xmlns="http://www.w3.org/2000/svg"><path fill-rule="evenodd" clip-rule="evenodd" d="M23.316.684C21.652 1.268 1.143 8.778.841 8.914-.163 9.368-.28 9.967.555 10.372c.081.04 1.47.462 3.085.94l2.938.87 6.672-3.979c3.67-2.188 6.746-4.002 6.836-4.032.227-.076.422-.069.513.018.064.06.066.091.015.18-.033.06-2.47 2.169-5.415 4.688-2.944 2.519-5.361 4.6-5.371 4.624-.01.024-.11 1.282-.222 2.795l-.203 2.75.221-.028c.122-.016.315-.076.428-.133.114-.058.881-.72 1.704-1.471.823-.752 1.525-1.377 1.56-1.39.035-.012 1.346.873 2.913 1.967 1.567 1.095 2.973 2.044 3.123 2.11.393.174.837.191 1.125.044.257-.131.509-.457.614-.797.041-.131.937-4.077 1.992-8.769C24.838 2.947 24.999 2.191 25 1.786c0-.383-.016-.475-.124-.676a1.106 1.106 0 00-.332-.372c-.29-.194-.768-.215-1.228-.054z" fill="#F5F5F6"/></svg>
